X: 20756
T: Johnny Henry's
R: jig
M: 6/8
K: Dmajor
|:AFA Bcd|Adf a2f|geg fdf|ege edB|
AFA Bcd|Adf a2f|geg fdf|gec d2B:|
Adf a3|baf a2f|geg fdf|ege edB|
Adf a3|baf a2f|geg fdf|gec d2B|
Adf a3|baf a2f|geg fdf|ef/g/e edB|
AFA Bcd|Adf a2f|geg fdf|gec d2B||

